packages/core/src/svgs/tokens/branded/XELS.svg

<svg width="24" height="24" viewBox="0 0 24 24" fill="none" xmlns="http://www.w3.org/2000/svg">
<path fill-rule="evenodd" clip-rule="evenodd" d="M2 7.74924L6.43299 16.2492H7.02299L2.549 7.74924H2ZM3.45499 16.2492L4.81999 13.9327L4.31999 13.0842L2.4415 16.2492H3.45499ZM8.46199 7.74924L6.36049 11.3173L5.89549 10.4318L7.48849 7.74924H8.46199ZM7.48399 16.2492L3.051 7.74924H4.02599L8.49999 16.2492H7.48399ZM12.2525 7.75573C9.88244 7.87673 7.99999 9.73072 7.99999 11.9992C7.99999 14.2678 9.88244 16.1217 12.2525 16.2427V15.2412C10.524 15.1292 9.14149 13.8513 9.00998 12.2492H11.5V11.2493H9.09348C9.43998 9.88773 10.7084 8.85723 12.2525 8.75723V7.75573ZM12.7524 8.75774V7.75573C15.1199 7.87924 17 9.73173 17 11.9992C17 13.3032 16.3784 14.4693 15.3999 15.2492H18L17.4999 16.2492H12.75V15.2492H12.7524V15.2408C14.5675 15.1207 16 13.7157 16 11.9992C16 10.2833 14.5675 8.87773 12.7524 8.75774ZM19.6985 12.4898C19.6057 12.4845 19.513 12.4751 19.421 12.4618C19.2492 12.4415 19.0805 12.4016 18.918 12.3428C18.6905 12.2686 18.4787 12.1534 18.2929 12.0027L18.296 11.9998C18.0092 11.7762 17.7774 11.4899 17.6184 11.1629C17.4595 10.8359 17.3776 10.4768 17.379 10.1133C17.379 8.87324 18.3125 7.85573 19.5 7.75723V8.77673C18.9295 8.90423 18.5 9.45923 18.5 10.1243C18.5 10.8658 19.0335 11.4702 19.701 11.4982C19.7629 11.5052 19.832 11.5162 19.907 11.5308C21.081 11.6432 22 12.6557 22 13.8887C22 15.1382 21.0565 16.1613 19.86 16.2508H18L18.5 15.2507H19.9005C20.52 15.1693 20.9999 14.5842 20.9999 13.8752C20.9999 13.1102 20.4399 12.4892 19.75 12.4892C19.7325 12.4892 19.7154 12.4887 19.6985 12.4898Z" fill="#4DB135"/>
</svg>

<svg xmlns="http://www.w3.org/2000/svg" width="24" height="24" fill="none" viewBox="0 0 24 24">
    <path fill="#4DB135" fill-rule="evenodd" d="m2 7.75 4.433 8.5h.59l-4.474-8.5zm1.455 8.5 1.365-2.317-.5-.849-1.879 3.165zm5.007-8.5L6.36 11.316l-.465-.885 1.593-2.683zm-.978 8.5-4.433-8.5h.975l4.474 8.5zm4.768-8.494C9.883 7.876 8 9.73 8 11.999s1.882 4.123 4.252 4.244V15.24c-1.728-.112-3.11-1.39-3.242-2.992h2.49v-1H9.093c.347-1.361 1.615-2.392 3.16-2.492zm.5 1.002V7.756C15.12 7.879 17 9.732 17 11.999c0 1.304-.622 2.47-1.6 3.25H18l-.5 1h-4.75v-1h.002v-.008C14.568 15.12 16 13.716 16 11.999c0-1.716-1.432-3.121-3.248-3.241m6.946 3.732a3 3 0 0 1-.277-.028q-.258-.03-.503-.12a2 2 0 0 1-.625-.34l.003-.002a2.38 2.38 0 0 1-.917-1.887c0-1.24.933-2.257 2.121-2.356v1.02c-.57.127-1 .682-1 1.347 0 .742.534 1.346 1.201 1.374q.093.01.206.033c1.174.112 2.093 1.125 2.093 2.358 0 1.25-.944 2.272-2.14 2.362H18l.5-1h1.4c.62-.082 1.1-.667 1.1-1.376 0-.765-.56-1.386-1.25-1.386z" clip-rule="evenodd"/>
</svg>
